;FLAVOR:Marlin
;TIME:41590
;Filament used: 31.7238m
;Layer height: 0.2
;MINX:40.232
;MINY:20.379
;MINZ:0.2
;MAXX:207.232
;MAXY:220.076
;MAXZ:33
;Generated with Cura_SteamEngine 4.6.1
M140 S60
M105
M190 S60
M104 S200
M105
M109 S200
M82 ;absolute extrusion mode
; Ender 3 Custom Start G-code
G92 E0 ; Reset Extruder
G28 ; Home all axes
G1 Z2.0 F3000 ; Move Z Axis up little to prevent scratching of Heat Bed
G1 X0.1 Y20 Z0.3 F5000.0 ; Move to start position
G1 X0.1 Y200.0 Z0.3 F1500.0 E15 ; Draw the first line
G1 X0.4 Y200.0 Z0.3 F5000.0 ; Move to side a little
G1 X0.4 Y20 Z0.3 F1500.0 E30 ; Draw the second line
G92 E0 ; Reset Extruder
G1 Z2.0 F3000 ; Move Z Axis up little to prevent scratching of Heat Bed
G1 X5 Y20 Z0.3 F5000.0 ; Move over to prevent blob squish
G92 E0
G92 E0
G1 F1500 E-6.5
;LAYER_COUNT:165
;LAYER:0
M107
G0 F6000 X194.169 Y21.19 Z0.2
;TYPE:SKIRT
G1 F1500 E0
G1 F1200 X195.338 Y21.274 E0.03898
G1 X195.884 Y21.345 E0.05729
G1 X196.774 Y21.501 E0.08735
G1 X197.646 Y21.735 E0.11738
G1 X198.282 Y21.96 E0.13981
G1 X198.74 Y22.139 E0.15617
G1 X199.566 Y22.504 E0.18621
G1 X200.356 Y22.942 E0.21625
G1 X200.812 Y23.238 E0.23433
G1 X201.268 Y23.552 E0.25275
G1 X201.988 Y24.097 E0.28278
G1 X202.658 Y24.703 E0.31283
G1 X203.168 Y25.246 E0.3376
G1 X203.511 Y25.639 E0.35495
G1 X203.995 Y26.238 E0.38057
G1 X204.078 Y26.349 E0.38518
G1 X204.586 Y27.095 E0.4152
G1 X205.026 Y27.884 E0.44524
G1 X205.267 Y28.399 E0.46415
G1 X205.476 Y28.881 E0.48163
G1 X205.798 Y29.725 E0.51167
G1 X206.045 Y30.594 E0.54172
G1 X206.172 Y31.222 E0.56303
G1 X206.262 Y31.749 E0.58081
G1 X206.394 Y32.935 E0.6205
G1 X206.416 Y33.357 E0.63456
G1 X206.43 Y33.885 E0.65213
G1 X206.431 Y39.949 E0.85381
G1 X206.422 Y40.611 E0.87584
G1 X206.37 Y41.512 E0.90585
G1 X206.3 Y42.052 E0.92396
G1 X206.218 Y42.575 E0.94157
G1 X205.864 Y45.067 E1.02529
G1 X205.577 Y47.596 E1.10994
G1 X205.36 Y50.155 E1.19536
G1 X205.218 Y52.682 E1.27954
G1 X205.147 Y55.217 E1.36389
G1 X205.147 Y57.752 E1.4482
G1 X205.22 Y60.29 E1.53265
G1 X205.364 Y62.838 E1.61753
G1 X205.581 Y65.377 E1.70229
G1 X205.864 Y67.856 E1.78528
G1 X206.319 Y71.03 E1.89192
G1 X206.417 Y72.17 E1.92998
G1 X206.432 Y72.809 E1.95124
G1 X206.431 Y114.719 E3.34517
G1 X206.421 Y115.412 E3.36822
G1 X206.339 Y116.565 E3.40667
G1 X206.265 Y117.141 E3.42598
G1 X206.11 Y118.031 E3.45603
G1 X205.938 Y118.705 E3.47917
G1 X205.732 Y119.404 E3.5034
G1 X205.286 Y120.844 E3.55354
G1 X204.604 Y123.289 E3.63797
G1 X203.991 Y125.757 E3.72255
G1 X203.441 Y128.258 E3.80772
G1 X202.971 Y130.745 E3.8919
G1 X202.573 Y133.225 E3.97544
G1 X202.237 Y135.779 E4.06112
G1 X201.979 Y138.277 E4.14465
G1 X201.788 Y140.84 E4.23013
G1 X201.675 Y143.324 E4.31283
G1 X201.627 Y146.316 E4.41236
G1 X201.627 Y208.34 E6.47529
G1 X201.626 Y208.494 E6.48041
G1 X201.615 Y209.221 E6.50459
G1 X201.561 Y210.123 E6.53465
G1 X201.428 Y211.016 E6.56467
G1 X201.216 Y211.894 E6.59472
G1 X200.928 Y212.75 E6.62476
G1 X200.565 Y213.577 E6.65479
G1 X200.13 Y214.368 E6.68482
G1 X199.627 Y215.118 E6.71486
G1 X199.06 Y215.821 E6.74489
G1 X198.432 Y216.471 E6.77496
G1 X197.75 Y217.062 E6.80497
G1 X197.018 Y217.591 E6.83501
G1 X196.242 Y218.053 E6.86505
G1 X195.428 Y218.445 E6.8951
G1 X194.583 Y218.763 E6.92513
G1 X193.713 Y219.005 E6.95516
G1 X192.825 Y219.169 E6.9852
G1 X191.704 Y219.263 E7.02261
G1 X191.097 Y219.276 E7.0428
G1 X58.134 Y219.276 E11.46517
G1 X57.304 Y219.266 E11.49278
G1 X56.403 Y219.215 E11.52279
G1 X55.509 Y219.083 E11.55285
G1 X54.631 Y218.874 E11.58287
G1 X53.774 Y218.587 E11.61293
G1 X52.947 Y218.226 E11.64294
G1 X52.154 Y217.793 E11.67299
G1 X51.403 Y217.292 E11.70302
G1 X50.699 Y216.726 E11.73306
G1 X50.048 Y216.1 E11.7631
G1 X49.455 Y215.419 E11.79314
G1 X48.925 Y214.688 E11.82317
G1 X48.461 Y213.913 E11.85321
G1 X48.067 Y213.1 E11.88326
G1 X47.747 Y212.256 E11.91328
G1 X47.503 Y211.386 E11.94333
G1 X47.337 Y210.498 E11.97338
G1 X47.24 Y209.343 E12.01193
G1 X47.227 Y208.734 E12.03219
G1 X47.227 Y150.339 E13.97442
G1 X47.19 Y147.733 E14.0611
G1 X47.081 Y145.165 E14.14659
G1 X46.904 Y142.663 E14.23002
G1 X46.655 Y140.15 E14.31401
G1 X46.327 Y137.587 E14.39995
G1 X45.936 Y135.102 E14.48362
G1 X45.476 Y132.626 E14.56738
G1 X44.931 Y130.092 E14.65359
G1 X44.337 Y127.674 E14.7364
G1 X43.66 Y125.209 E14.82142
G1 X42.925 Y122.806 E14.905
G1 X41.684 Y119.201 E15.03181
G1 X41.429 Y118.335 E15.06184
G1 X41.237 Y117.36 E15.09489
G1 X41.163 Y116.855 E15.11186
G1 X41.067 Y115.867 E15.14488
G1 X41.046 Y115.431 E15.1594
G1 X41.032 Y114.808 E15.18012
G1 X41.033 Y86.04 E16.13695
G1 X41.043 Y85.342 E16.16017
G1 X41.067 Y84.772 E16.17914
G1 X41.108 Y84.213 E16.19779
G1 X41.265 Y82.368 E16.25937
G1 X41.41 Y79.796 E16.34505
G1 X41.482 Y77.262 E16.42937
G1 X41.482 Y74.728 E16.51365
G1 X41.41 Y72.195 E16.59793
G1 X41.264 Y69.61 E16.68405
G1 X41.153 Y68.195 E16.73126
G1 X41.079 Y67.341 E16.75977
G1 X41.045 Y66.756 E16.77926
G1 X41.032 Y66.15 E16.79942
G1 X41.033 Y34.175 E17.86291
G1 X41.041 Y33.587 E17.88247
G1 X41.095 Y32.669 E17.91305
G1 X41.164 Y32.007 E17.93519
G1 X41.297 Y31.113 E17.96525
G1 X41.509 Y30.235 E17.99529
G1 X41.807 Y29.356 E18.02616
G1 X42.024 Y28.8 E18.04602
G1 X42.389 Y27.974 E18.07605
G1 X42.826 Y27.183 E18.10611
G1 X43.34 Y26.423 E18.13662
G1 X43.621 Y26.045 E18.15229
G1 X44.191 Y25.344 E18.18234
G1 X45.072 Y24.47 E18.22361
G1 X45.461 Y24.128 E18.24084
G1 X46.12 Y23.595 E18.26903
G1 X46.24 Y23.506 E18.274
G1 X46.988 Y23.001 E18.30402
G1 X47.779 Y22.564 E18.33408
G1 X48.233 Y22.352 E18.35074
G1 X48.668 Y22.162 E18.36653
G1 X49.511 Y21.837 E18.39658
G1 X50.379 Y21.589 E18.4266
G1 X50.888 Y21.481 E18.44391
G1 X51.464 Y21.374 E18.4634
G1 X52.358 Y21.248 E18.49342
G1 X52.884 Y21.212 E18.51096
G1 X53.413 Y21.189 E18.52857
G1 X53.856 Y21.179 E18.54331
G1 X193.325 Y21.179 E23.18207
G1 X193.471 Y21.18 E23.18692
G1 X194.169 Y21.19 E23.21014
G0 F6000 X194.175 Y20.79
G1 F1200 X195.39 Y20.877 E23.25066
G1 X195.936 Y20.948 E23.26897
G1 X196.843 Y21.107 E23.2996
G1 X197.733 Y21.343 E23.33022
G1 X198.428 Y21.587 E23.35472
G1 X198.886 Y21.766 E23.37107
G1 X199.728 Y22.138 E23.40169
G1 X200.534 Y22.582 E23.4323
G1 X201.039 Y22.909 E23.45231
G1 X201.495 Y23.223 E23.47072
G1 X202.23 Y23.777 E23.50133
G1 X202.914 Y24.393 E23.53195
G1 X203.469 Y24.983 E23.55889
G1 X203.812 Y25.376 E23.57624
G1 X204.315 Y25.998 E23.60285
G1 X204.398 Y26.109 E23.60746
G1 X204.917 Y26.87 E23.63809
G1 X205.368 Y27.673 E23.66873
G1 X205.634 Y28.24 E23.68956
G1 X205.843 Y28.722 E23.70703
G1 X206.172 Y29.582 E23.73766
G1 X206.426 Y30.467 E23.76828
G1 X206.567 Y31.155 E23.79164
G1 X206.657 Y31.682 E23.80942
G1 X206.794 Y32.914 E23.85065
G1 X206.816 Y33.336 E23.8647
G1 X206.83 Y33.884 E23.88294
G1 X206.831 Y39.954 E24.08482
G1 X206.822 Y40.616 E24.10685
G1 X206.77 Y41.535 E24.13746
G1 X206.695 Y42.114 E24.15688
G1 X206.631 Y42.522 E24.17061
G1 X206.254 Y45.172 E24.25964
G1 X205.974 Y47.639 E24.34222
G1 X205.759 Y50.176 E24.4269
G1 X205.618 Y52.681 E24.51035
G1 X205.547 Y55.228 E24.5951
G1 X205.547 Y57.74 E24.67865
G1 X205.62 Y60.291 E24.76353
G1 X205.763 Y62.818 E24.84771
G1 X205.975 Y65.299 E24.93053
G1 X206.263 Y67.82 E25.01493
G1 X206.715 Y70.973 E25.12087
G1 X206.817 Y72.158 E25.16043
G1 X206.832 Y72.809 E25.18208
G1 X206.831 Y114.725 E26.57622
G1 X206.821 Y115.418 E26.59927
G1 X206.736 Y116.616 E26.63921
G1 X206.662 Y117.192 E26.65853
G1 X206.505 Y118.099 E26.68914
G1 X206.322 Y118.817 E26.71379
G1 X206.114 Y119.522 E26.73824
G1 X205.671 Y120.955 E26.78812
G1 X204.992 Y123.388 E26.87214
G1 X204.375 Y125.868 E26.95714
G1 X203.837 Y128.32 E27.04063
G1 X203.366 Y130.805 E27.12475
G1 X202.965 Y133.309 E27.2091
G1 X202.637 Y135.801 E27.2927
G1 X202.378 Y138.312 E27.37666
G1 X202.189 Y140.852 E27.46137
G1 X202.075 Y143.351 E27.54458
G1 X202.027 Y146.322 E27.6434
G1 X202.027 Y208.34 E29.70613
G1 X202.026 Y208.5 E29.71145
G1 X202.015 Y209.227 E29.73564
G1 X201.961 Y210.146 E29.76625
G1 X201.827 Y211.057 E29.79688
G1 X201.615 Y211.953 E29.8275
G1 X201.327 Y212.827 E29.85811
G1 X200.963 Y213.673 E29.88874
G1 X200.527 Y214.484 E29.91937
G1 X200.023 Y215.254 E29.94998
G1 X199.453 Y215.978 E29.98062
G1 X198.823 Y216.649 E30.01124
G1 X198.138 Y217.263 E30.04183
G1 X197.401 Y217.816 E30.07248
G1 X196.619 Y218.302 E30.1031
G1 X195.798 Y218.719 E30.13373
G1 X194.944 Y219.063 E30.16435
G1 X194.064 Y219.331 E30.19495
G1 X193.163 Y219.522 E30.22558
G1 X192.249 Y219.634 E30.25621
G1 X191.715 Y219.663 E30.274
G1 X191.097 Y219.676 E30.29455
G1 X58.134 Y219.676 E34.71692
G1 X57.299 Y219.666 E34.7447
G1 X56.38 Y219.614 E34.77531
G1 X55.469 Y219.483 E34.80592
G1 X54.573 Y219.273 E34.83653
G1 X53.698 Y218.986 E34.86716
G1 X52.851 Y218.624 E34.8978
G1 X52.039 Y218.19 E34.92842
G1 X51.268 Y217.688 E34.95902
G1 X50.543 Y217.12 E34.98965
G1 X49.87 Y216.491 E35.02029
G1 X49.255 Y215.807 E35.05088
G1 X48.701 Y215.072 E35.0815
G1 X48.213 Y214.291 E35.11213
G1 X47.794 Y213.471 E35.14275
G1 X47.448 Y212.618 E35.17337
G1 X47.178 Y211.738 E35.20399
G1 X46.985 Y210.837 E35.23463
G1 X46.871 Y209.924 E35.26524
G1 X46.84 Y209.353 E35.28425
G1 X46.827 Y208.734 E35.30485
G1 X46.827 Y150.345 E37.24687
G1 X46.79 Y147.72 E37.33419
G1 X46.683 Y145.212 E37.41768
G1 X46.505 Y142.691 E37.50174
G1 X46.255 Y140.173 E37.5859
G1 X45.934 Y137.662 E37.6701
G1 X45.547 Y135.2 E37.75299
G1 X45.078 Y132.678 E37.83831
G1 X44.545 Y130.199 E37.92264
G1 X43.949 Y127.77 E38.00583
G1 X43.268 Y125.295 E38.09121
G1 X42.547 Y122.935 E38.17328
G1 X41.306 Y119.331 E38.30006
G1 X41.045 Y118.449 E38.33065
G1 X40.841 Y117.418 E38.36561
G1 X40.767 Y116.913 E38.38258
G1 X40.667 Y115.886 E38.4169
G1 X40.646 Y115.45 E38.43142
G1 X40.632 Y114.812 E38.45265
G1 X40.633 Y86.034 E39.40981
G1 X40.643 Y85.336 E39.43303
G1 X40.668 Y84.744 E39.45273
G1 X40.709 Y84.18 E39.47154
G1 X40.867 Y82.315 E39.53379
G1 X41.01 Y79.796 E39.61771
G1 X41.082 Y77.251 E39.70239
G1 X41.082 Y74.74 E39.78591
G1 X41.01 Y72.194 E39.87062
G1 X40.866 Y69.662 E39.95497
G1 X40.754 Y68.226 E40.00288
G1 X40.68 Y67.376 E40.03126
G1 X40.645 Y66.768 E40.05151
G1 X40.632 Y66.15 E40.07207
G1 X40.633 Y34.17 E41.13573
G1 X40.641 Y33.582 E41.15529
G1 X40.697 Y32.627 E41.18711
G1 X40.766 Y31.965 E41.20925
G1 X40.901 Y31.054 E41.23988
G1 X41.115 Y30.159 E41.27048
G1 X41.434 Y29.21 E41.30378
G1 X41.651 Y28.654 E41.32363
G1 X42.023 Y27.812 E41.35425
G1 X42.466 Y27.005 E41.38487
G1 X43.019 Y26.184 E41.41779
G1 X43.3 Y25.806 E41.43346
G1 X43.881 Y25.092 E41.46408
G1 X44.808 Y24.169 E41.50759
G1 X45.197 Y23.827 E41.52481
G1 X45.881 Y23.274 E41.55407
G1 X46.001 Y23.185 E41.55904
G1 X46.764 Y22.669 E41.58967
G1 X47.569 Y22.222 E41.6203
G1 X48.073 Y21.985 E41.63882
G1 X48.508 Y21.795 E41.65461
G1 X49.367 Y21.464 E41.68523
G1 X50.251 Y21.208 E41.71584
G1 X50.815 Y21.087 E41.73502
G1 X51.391 Y20.98 E41.75451
G1 X52.303 Y20.852 E41.78514
G1 X52.867 Y20.812 E41.80395
G1 X53.396 Y20.789 E41.82156
G1 X53.856 Y20.779 E41.83686
G1 X193.325 Y20.779 E46.47562
G1 X193.477 Y20.78 E46.48067
G1 X194.175 Y20.79 E46.50389
G0 F6000 X194.181 Y20.39
G1 F1200 X195.441 Y20.481 E46.54591
G1 X195.987 Y20.552 E46.56422
G1 X196.911 Y20.712 E46.59541
G1 X197.819 Y20.951 E46.62664
G1 X198.573 Y21.215 E46.65321
G1 X199.031 Y21.394 E46.66957
G1 X199.889 Y21.772 E46.70075
G1 X200.712 Y22.222 E46.73195
G1 X201.266 Y22.579 E46.75387
G1 X201.722 Y22.893 E46.77228
G1 X202.471 Y23.458 E46.80349
G1 X203.169 Y24.084 E46.83467
G1 X203.77 Y24.72 E46.86378
G1 X204.113 Y25.113 E46.88113
G1 X204.636 Y25.759 E46.90877
G1 X204.719 Y25.87 E46.91338
G1 X205.248 Y26.644 E46.94456
G1 X205.709 Y27.461 E46.97576
G1 X206.001 Y28.081 E46.99856
G1 X206.21 Y28.563 E47.01603
G1 X206.546 Y29.439 E47.04724
G1 X206.806 Y30.34 E47.07843
G1 X206.961 Y31.087 E47.1038
G1 X207.051 Y31.614 E47.12158
G1 X207.193 Y32.893 E47.16438
G1 X207.215 Y33.315 E47.17844
G1 X207.23 Y33.884 E47.19737
G1 X207.231 Y39.96 E47.39946
G1 X207.222 Y40.622 E47.42148
G1 X207.169 Y41.558 E47.45266
G1 X207.09 Y42.176 E47.47338
G1 X207.032 Y42.543 E47.48574
G1 X206.654 Y45.202 E47.57507
G1 X206.373 Y47.682 E47.65808
G1 X206.159 Y50.198 E47.74207
G1 X206.018 Y52.714 E47.82588
G1 X205.947 Y55.239 E47.90989
G1 X205.947 Y57.763 E47.99384
G1 X206.018 Y60.258 E48.07686
G1 X206.16 Y62.76 E48.16021
G1 X206.377 Y65.291 E48.2447
G1 X206.657 Y67.751 E48.32705
G1 X207.111 Y70.916 E48.4334
G1 X207.217 Y72.146 E48.47446
G1 X207.227 Y72.477 E48.48547
G1 X207.232 Y72.809 E48.49651
G1 X207.231 Y114.731 E49.89085
G1 X207.221 Y115.424 E49.9139
G1 X207.132 Y116.667 E49.95535
G1 X207.058 Y117.243 E49.97466
G1 X206.899 Y118.167 E50.00585
G1 X206.706 Y118.929 E50.03199
G1 X206.496 Y119.64 E50.05665
G1 X206.052 Y121.075 E50.10661
G1 X205.379 Y123.486 E50.18986
G1 X204.768 Y125.944 E50.27411
G1 X204.228 Y128.401 E50.35778
G1 X203.76 Y130.877 E50.44159
G1 X203.363 Y133.353 E50.52499
G1 X203.033 Y135.857 E50.60899
G1 X202.776 Y138.349 E50.69232
G1 X202.589 Y140.864 E50.7762
G1 X202.474 Y143.375 E50.8598
G1 X202.427 Y146.328 E50.95803
G1 X202.427 Y208.34 E53.02056
G1 X202.426 Y208.506 E53.02608
G1 X202.415 Y209.233 E53.05026
G1 X202.361 Y210.17 E53.08148
G1 X202.227 Y211.098 E53.11266
G1 X202.015 Y212.012 E53.14387
G1 X201.725 Y212.904 E53.17507
G1 X201.361 Y213.768 E53.20625
G1 X200.924 Y214.598 E53.23745
G1 X200.419 Y215.388 E53.26863
G1 X199.847 Y216.132 E53.29985
G1 X199.215 Y216.824 E53.33102
G1 X198.526 Y217.46 E53.36221
G1 X197.785 Y218.036 E53.39342
G1 X196.998 Y218.545 E53.4246
G1 X196.17 Y218.987 E53.45581
G1 X195.308 Y219.355 E53.48699
G1 X194.417 Y219.65 E53.5182
G1 X193.505 Y219.867 E53.54938
G1 X192.578 Y220.006 E53.58056
G1 X191.726 Y220.063 E53.60896
G1 X191.097 Y220.076 E53.62989
G1 X58.134 Y220.076 E58.05225
G1 X57.294 Y220.066 E58.08019
G1 X56.358 Y220.014 E58.11137
G1 X55.429 Y219.882 E58.14258
G1 X54.515 Y219.672 E58.17377
G1 X53.622 Y219.385 E58.20497
G1 X52.757 Y219.022 E58.23617
G1 X51.926 Y218.588 E58.26735
G1 X51.135 Y218.084 E58.29855
G1 X50.39 Y217.514 E58.32975
G1 X49.696 Y216.883 E58.36095
G1 X49.059 Y216.196 E58.39211
G1 X48.482 Y215.456 E58.42332
G1 X47.97 Y214.67 E58.45452
G1 X47.527 Y213.843 E58.48572
G1 X47.156 Y212.982 E58.5169
G1 X46.86 Y212.092 E58.5481
G1 X46.641 Y211.18 E58.57929
G1 X46.5 Y210.253 E58.61048
G1 X46.44 Y209.364 E58.64012
G1 X46.427 Y208.734 E58.66107
G1 X46.427 Y150.351 E60.6029
G1 X46.39 Y147.743 E60.68965
G1 X46.283 Y145.221 E60.77361
G1 X46.106 Y142.726 E60.8568
G1 X45.858 Y140.227 E60.94033
G1 X45.54 Y137.738 E61.02379
G1 X45.146 Y135.229 E61.10826
G1 X44.687 Y132.763 E61.19169
G1 X44.153 Y130.281 E61.27613
G1 X43.567 Y127.892 E61.35794
G1 X42.886 Y125.413 E61.44345
G1 X42.159 Y123.038 E61.52606
G1 X40.928 Y119.461 E61.65188
G1 X40.661 Y118.562 E61.68307
G1 X40.445 Y117.476 E61.7199
G1 X40.371 Y116.971 E61.73687
G1 X40.268 Y115.905 E61.77249
G1 X40.247 Y115.469 E61.78701
G1 X40.232 Y114.816 E61.80874
G1 X40.233 Y86.028 E62.76623
G1 X40.243 Y85.33 E62.78945
G1 X40.269 Y84.716 E62.80989
G1 X40.31 Y84.146 E62.82889
G1 X40.47 Y82.257 E62.89195
G1 X40.61 Y79.798 E62.97387
G1 X40.682 Y77.24 E63.05898
G1 X40.682 Y74.751 E63.14176
G1 X40.61 Y72.192 E63.22691
G1 X40.467 Y69.67 E63.31093
G1 X40.363 Y68.346 E63.3551
G1 X40.282 Y67.41 E63.38635
G1 X40.246 Y66.779 E63.40737
G1 X40.232 Y66.15 E63.42829
G1 X40.233 Y34.164 E64.49215
G1 X40.241 Y33.576 E64.51171
G1 X40.299 Y32.586 E64.5447
G1 X40.368 Y31.924 E64.56683
G1 X40.505 Y30.996 E64.59803
G1 X40.721 Y30.083 E64.62924
G1 X41.062 Y29.065 E64.66495
G1 X41.279 Y28.509 E64.6848
G1 X41.657 Y27.65 E64.71601
G1 X42.106 Y26.827 E64.74719
G1 X42.698 Y25.945 E64.78252
G1 X42.979 Y25.567 E64.79819
